X: 6520
T: Cat's Meow, The
R: jig
M: 6/8
K: Dmajor
|:D|FAd f2f|afe dBA|B3 BAB|dAF E2 E|
FAd f2f|afe dBA|B/c/de fdB|AFE D2:|
|:e|fdA AFA|DFA def|g2g ege|ced cBA|
fdA AFA|DFA def|g2g age|edc d2:|
|:d|FAd fef|agf agf|Ace g2 g|gfe gfe|f2f gfg|
aga bag|1 faf gec|edc d2:|2 fdB gec|dAF D2||

